X: 1
T: Asher
C: Rodney Miller
R: reel
Z: 2020 John Chambers <jc:trillian.mit.edu>
S: https://www.facebook.com/groups/Fiddletuneoftheday/ 2020-11-16
S: https://www.facebook.com/groups/Fiddletuneoftheday/photos/
B: Portland Collection
S: amazoncreek.com collection (2009)
M: 2/2
L: 1/8
K: D
|: \
"D"FEFA d2de | fded Bdef | "Em"g2eg "D/F#"fdad | "G"BdAF "A"EDEF |
"D"DEFA dcde | fded Bdef |  "G"g2eg "D"fdad |1 "A"AFED "D"D2DE :|2 "A"AFED "D"D4 ||
K: Dm
|: \
"Dm"D2DE F2DE | FEDC A,4 | "Gm"E2EF G2G2  | "Bb"_A2A2 "A"GFDC |
"Dm"D2DE F2DE | FEDC A,4 | "Gm"E2EF G2G_A | "A"GFDC  "Dm"D4  :|
